icons/align-bottom.svg

<svg xmlns="http://www.w3.org/2000/svg" viewBox="0 0 24 24" fill="currentColor">
  <path d="M16 4.75c-.6858 0-1.25.56421-1.25 1.25v9c0 .6858.5642 1.25 1.25 1.25h2c.6858 0 1.25-.5642 1.25-1.25V6c0-.7612-.5392-1.25-1.25-1.25h-2ZM13.25 6c0-1.51421 1.2358-2.75 2.75-2.75h2c1.4892 0 2.75 1.1112 2.75 2.75v9c0 1.5142-1.2358 2.75-2.75 2.75h-2c-1.5142 0-2.75-1.2358-2.75-2.75V6ZM6 8.75c-.68579 0-1.25.56421-1.25 1.25v5c0 .6858.56421 1.25 1.25 1.25h2c.68579 0 1.25-.5642 1.25-1.25v-5c0-.7612-.53919-1.25-1.25-1.25H6ZM3.25 10c0-1.51421 1.23579-2.75 2.75-2.75h2c1.48919 0 2.75 1.1112 2.75 2.75v5c0 1.5142-1.23579 2.75-2.75 2.75H6c-1.51421 0-2.75-1.2358-2.75-2.75v-5ZM4 19.25c-.41421 0-.75.3358-.75.75s.33579.75.75.75h16c.4142 0 .75-.3358.75-.75s-.3358-.75-.75-.75H4Z"/>
</svg>

<svg width="24" height="24" viewBox="0 0 24 24" fill="none" xmlns="http://www.w3.org/2000/svg">
<path fill-rule="evenodd" clip-rule="evenodd" d="M16 4.75C15.3142 4.75 14.75 5.31421 14.75 6V15C14.75 15.6858 15.3142 16.25 16 16.25H18C18.6858 16.25 19.25 15.6858 19.25 15V6C19.25 5.2388 18.7108 4.75 18 4.75H16ZM13.25 6C13.25 4.48579 14.4858 3.25 16 3.25H18C19.4892 3.25 20.75 4.3612 20.75 6V15C20.75 16.5142 19.5142 17.75 18 17.75H16C14.4858 17.75 13.25 16.5142 13.25 15V6ZM6 8.75C5.31421 8.75 4.75 9.31421 4.75 10V15C4.75 15.6858 5.31421 16.25 6 16.25H8C8.68579 16.25 9.25 15.6858 9.25 15V10C9.25 9.2388 8.71081 8.75 8 8.75H6ZM3.25 10C3.25 8.48579 4.48579 7.25 6 7.25H8C9.48919 7.25 10.75 8.3612 10.75 10V15C10.75 16.5142 9.51421 17.75 8 17.75H6C4.48579 17.75 3.25 16.5142 3.25 15V10ZM4 19.25C3.58579 19.25 3.25 19.5858 3.25 20C3.25 20.4142 3.58579 20.75 4 20.75H20C20.4142 20.75 20.75 20.4142 20.75 20C20.75 19.5858 20.4142 19.25 20 19.25H4Z" fill="black"/>
</svg>
